app/dist/common/images/sfc-energy-ag-br.svg

<svg height="18" viewBox="0 0 18 18" width="18" xmlns="http://www.w3.org/2000/svg"><path d="m0 0h18v18h-18z" fill="#f0f3fa"/><path d="m4.63 7c-.73 0-.63.24-.63.86 0 .5.13.64.63.64h.92c.77 0 1.45.72 1.45 1.5v.72c0 .83-.7 1.28-1.5 1.28h-2.5v-1h2.34c.83 0 .65-.12.65-.76 0-.47-.2-.74-.63-.74h-1.02c-.72 0-1.34-.6-1.34-1.36v-.91c0-.37.14-.73.44-.98.26-.22.54-.25.88-.25h2.68v1zm4.37 2v3h-1v-4.78c0-.36.1-.7.33-.94.24-.24.49-.28.79-.28h1.88v1h-1.36c-.34 0-.64.24-.64.68v.32h2v1zm4.58-2c-.36 0-.58.26-.58.7v2.47c0 .57.16.83.61.83h1.39v1h-1.94c-.68 0-1.06-.5-1.06-1.35v-3.32c0-.41.04-.76.3-1.05.23-.26.51-.28.81-.28h1.89v1z" fill="#636362"/></svg>

<!-- by TradingView --><svg width="18" height="18" viewBox="0 0 18 18" xmlns="http://www.w3.org/2000/svg"><path fill="#F0F3FA" d="M0 0h18v18H0z"/><path d="M4.63 7C3.9 7 4 7.24 4 7.86c0 .5.13.64.63.64h.92C6.32 8.5 7 9.22 7 10v.72C7 11.55 6.3 12 5.5 12H3v-1h2.34c.83 0 .65-.12.65-.76 0-.47-.2-.74-.63-.74H4.34C3.62 9.5 3 8.9 3 8.14v-.91c0-.37.14-.73.44-.98.26-.22.54-.25.88-.25H7v1H4.63ZM9 9v3H8V7.22c0-.36.1-.7.33-.94.24-.24.49-.28.79-.28H11v1H9.64C9.3 7 9 7.24 9 7.68V8h2v1H9ZM13.58 7c-.36 0-.58.26-.58.7v2.47c0 .57.16.83.61.83H15v1h-1.94c-.68 0-1.06-.5-1.06-1.35V7.33c0-.41.04-.76.3-1.05.23-.26.51-.28.81-.28H15v1h-1.42Z" fill="#636362"/></svg>
